images/step5.svg

<svg width="32" height="32" viewBox="0 0 32 32" fill="none" xmlns="http://www.w3.org/2000/svg">
<path d="M26.9722 5H4.36111C3.46989 5.00065 2.61535 5.35497 1.98516 5.98516C1.35497 6.61535 1.00065 7.46989 1 8.36111L1 23.6389C1.00065 24.5301 1.35497 25.3846 1.98516 26.0148C2.61535 26.645 3.46989 26.9994 4.36111 27H26.9722C27.8634 26.9994 28.718 26.645 29.3482 26.0148C29.9784 25.3846 30.3327 24.5301 30.3333 23.6389V8.36111C30.3327 7.46989 29.9784 6.61535 29.3482 5.98516C28.718 5.35497 27.8634 5.00065 26.9722 5ZM10.1667 9.88889C11.8509 9.88889 13.2222 11.2602 13.2222 12.9444C13.2222 14.6287 11.8509 16 10.1667 16C8.48244 16 7.11111 14.6287 7.11111 12.9444C7.11111 11.2602 8.48244 9.88889 10.1667 9.88889ZM15.6667 21.1944C15.6667 21.4376 15.5701 21.6707 15.3982 21.8426C15.2263 22.0145 14.9931 22.1111 14.75 22.1111H5.58333C5.34022 22.1111 5.10706 22.0145 4.93515 21.8426C4.76324 21.6707 4.66667 21.4376 4.66667 21.1944V20.5833C4.66731 19.6921 5.02164 18.8376 5.65183 18.2074C6.28202 17.5772 7.13655 17.2229 8.02778 17.2222H12.3056C13.1968 17.2229 14.0513 17.5772 14.6815 18.2074C15.3117 18.8376 15.666 19.6921 15.6667 20.5833V21.1944ZM25.75 22.1111H19.0278C18.7847 22.1111 18.5515 22.0145 18.3796 21.8426C18.2077 21.6707 18.1111 21.4376 18.1111 21.1944C18.1111 20.9513 18.2077 20.7182 18.3796 20.5463C18.5515 20.3744 18.7847 20.2778 19.0278 20.2778H25.75C25.9931 20.2778 26.2263 20.3744 26.3982 20.5463C26.5701 20.7182 26.6667 20.9513 26.6667 21.1944C26.6667 21.4376 26.5701 21.6707 26.3982 21.8426C26.2263 22.0145 25.9931 22.1111 25.75 22.1111ZM25.75 17.2222H19.0278C18.7847 17.2222 18.5515 17.1256 18.3796 16.9537C18.2077 16.7818 18.1111 16.5487 18.1111 16.3056C18.1111 16.0624 18.2077 15.8293 18.3796 15.6574C18.5515 15.4855 18.7847 15.3889 19.0278 15.3889H25.75C25.9931 15.3889 26.2263 15.4855 26.3982 15.6574C26.5701 15.8293 26.6667 16.0624 26.6667 16.3056C26.6667 16.5487 26.5701 16.7818 26.3982 16.9537C26.2263 17.1256 25.9931 17.2222 25.75 17.2222ZM25.75 12.3333H19.0278C18.7847 12.3333 18.5515 12.2368 18.3796 12.0648C18.2077 11.8929 18.1111 11.6598 18.1111 11.4167C18.1111 11.1736 18.2077 10.9404 18.3796 10.7685C18.5515 10.5966 18.7847 10.5 19.0278 10.5H25.75C25.9931 10.5 26.2263 10.5966 26.3982 10.7685C26.5701 10.9404 26.6667 11.1736 26.6667 11.4167C26.6667 11.6598 26.5701 11.8929 26.3982 12.0648C26.2263 12.2368 25.9931 12.3333 25.75 12.3333Z" fill="#2161AB"/>
</svg>

<svg width="32" height="32" fill="none" xmlns="http://www.w3.org/2000/svg"><path d="M26.972 5H4.362A3.364 3.364 0 001 8.361V23.64A3.364 3.364 0 004.361 27h22.611a3.364 3.364 0 003.361-3.361V8.36A3.363 3.363 0 0026.973 5zM10.167 9.889a3.06 3.06 0 013.055 3.055A3.06 3.06 0 0110.167 16a3.06 3.06 0 01-3.056-3.056 3.06 3.06 0 013.056-3.055zm5.5 11.305a.917.917 0 01-.917.917H5.583a.917.917 0 01-.916-.917v-.61a3.363 3.363 0 013.36-3.362h4.279a3.364 3.364 0 013.36 3.361v.611zm10.083.917h-6.722a.917.917 0 010-1.833h6.722a.917.917 0 010 1.833zm0-4.889h-6.722a.917.917 0 010-1.833h6.722a.917.917 0 010 1.833zm0-4.889h-6.722a.916.916 0 110-1.833h6.722a.917.917 0 010 1.833z" fill="#2161AB"/></svg>
